_includes/icons/color-rent.svg

<svg fill="#666" height="50" viewBox="0 0 48 48" width="50" xmlns="http://www.w3.org/2000/svg"><path d="m40 42h-32v-21.101562l16-11.699219 16 11.300781z" fill="#8bc34a"/><path d="m42 25-18-12-18 12v-7l18-12 18 12z" fill="#2e7d32"/><path d="m22.398438 26.300781c.101562.199219.203125.398438.402343.597657.199219.203125.398438.402343.699219.5.300781.203125.699219.300781 1.101563.5.699218.300781 1.398437.601562 2 .902343.597656.300782 1.097656.699219 1.5 1.097657.398437.402343.796875.902343 1 1.402343.199218.5.398437 1.199219.398437 1.898438s-.101562 1.300781-.300781 1.800781-.5 1-.898438 1.398438c-.402343.402343-.902343.703125-1.402343.902343-.597657.199219-1.199219.398438-1.796875.5v2.199219h-1.800782v-2.199219c-.601562-.101562-1.199218-.199218-1.800781-.402343-.601562-.199219-1.101562-.5-1.5-1-.5-.398438-.800781-1-1.101562-1.597657-.296875-.601562-.398438-1.402343-.398438-2.300781h3.300781c0 .5.097657 1 .199219 1.300781.101563.398438.300781.597657.601563.898438.199218.199219.5.402344.796875.402344.300781.097656.601562.097656.902343.097656.398438 0 .699219 0 .898438-.097656.300781-.101563.5-.203125.699219-.402344.203125-.199219.300781-.398438.402343-.597656.097657-.203125.097657-.5.097657-.800782 0-.300781 0-.601562-.097657-.800781-.101562-.199219-.199218-.5-.402343-.699219-.199219-.199218-.398438-.402343-.699219-.5-.300781-.199218-.699219-.300781-1.097656-.5-.703125-.300781-1.402344-.601562-2-.902343-.601563-.296875-1.101563-.699219-1.5-1.097657-.402344-.402343-.800782-.902343-1-1.402343-.203125-.5-.402344-1.199219-.402344-1.898438 0-.601562.101562-1.199219.300781-1.699219s.5-1 .898438-1.402343c.402343-.398438.902343-.699219 1.402343-1 .5-.296875 1.199219-.398438 1.800782-.5v-2.398438h1.796875v2.5c.601562.101563 1.203125.300781 1.800781.601563.5.296875 1 .597656 1.300781 1.097656.398438.402344.699219 1 .898438 1.601562.203125.597657.300781 1.300782.300781 2h-3.300781c0-.902343-.199219-1.601562-.597657-2-.402343-.402343-.902343-.699218-1.5-.699218-.300781 0-.601562.097656-.902343.199218-.199219.097657-.398438.199219-.597657.398438-.199218.199219-.300781.402344-.300781.601562-.101562.199219-.101562.5-.101562.800782-.199219.199218-.097657.5 0 .699218" fill="#fff"/></svg>

<svg xmlns="http://www.w3.org/2000/svg" viewBox="0 0 48 48" width="50" height="50" fill="#666"><path d="M 40 42 L 8 42 L 8 20.898438 L 24 9.199219 L 40 20.5 Z" fill="#8bc34a"/><path d="M 42 25 L 24 13 L 6 25 L 6 18 L 24 6 L 42 18 Z" fill="#2e7d32"/><path d="M 22.398438 26.300781 C 22.5 26.5 22.601563 26.699219 22.800781 26.898438 C 23 27.101563 23.199219 27.300781 23.5 27.398438 C 23.800781 27.601563 24.199219 27.699219 24.601563 27.898438 C 25.300781 28.199219 26 28.5 26.601563 28.800781 C 27.199219 29.101563 27.699219 29.5 28.101563 29.898438 C 28.5 30.300781 28.898438 30.800781 29.101563 31.300781 C 29.300781 31.800781 29.5 32.5 29.5 33.199219 C 29.5 33.898438 29.398438 34.5 29.199219 35 C 29 35.5 28.699219 36 28.300781 36.398438 C 27.898438 36.800781 27.398438 37.101563 26.898438 37.300781 C 26.300781 37.5 25.699219 37.699219 25.101563 37.800781 L 25.101563 40 L 23.300781 40 L 23.300781 37.800781 C 22.699219 37.699219 22.101563 37.601563 21.5 37.398438 C 20.898438 37.199219 20.398438 36.898438 20 36.398438 C 19.5 36 19.199219 35.398438 18.898438 34.800781 C 18.601563 34.199219 18.5 33.398438 18.5 32.5 L 21.800781 32.5 C 21.800781 33 21.898438 33.5 22 33.800781 C 22.101563 34.199219 22.300781 34.398438 22.601563 34.699219 C 22.800781 34.898438 23.101563 35.101563 23.398438 35.101563 C 23.699219 35.199219 24 35.199219 24.300781 35.199219 C 24.699219 35.199219 25 35.199219 25.199219 35.101563 C 25.5 35 25.699219 34.898438 25.898438 34.699219 C 26.101563 34.5 26.199219 34.300781 26.300781 34.101563 C 26.398438 33.898438 26.398438 33.601563 26.398438 33.300781 C 26.398438 33 26.398438 32.699219 26.300781 32.5 C 26.199219 32.300781 26.101563 32 25.898438 31.800781 C 25.699219 31.601563 25.5 31.398438 25.199219 31.300781 C 24.898438 31.101563 24.5 31 24.101563 30.800781 C 23.398438 30.5 22.699219 30.199219 22.101563 29.898438 C 21.5 29.601563 21 29.199219 20.601563 28.800781 C 20.199219 28.398438 19.800781 27.898438 19.601563 27.398438 C 19.398438 26.898438 19.199219 26.199219 19.199219 25.5 C 19.199219 24.898438 19.300781 24.300781 19.5 23.800781 C 19.699219 23.300781 20 22.800781 20.398438 22.398438 C 20.800781 22 21.300781 21.699219 21.800781 21.398438 C 22.300781 21.101563 23 21 23.601563 20.898438 L 23.601563 18.5 L 25.398438 18.5 L 25.398438 21 C 26 21.101563 26.601563 21.300781 27.199219 21.601563 C 27.699219 21.898438 28.199219 22.199219 28.5 22.699219 C 28.898438 23.101563 29.199219 23.699219 29.398438 24.300781 C 29.601563 24.898438 29.699219 25.601563 29.699219 26.300781 L 26.398438 26.300781 C 26.398438 25.398438 26.199219 24.699219 25.800781 24.300781 C 25.398438 23.898438 24.898438 23.601563 24.300781 23.601563 C 24 23.601563 23.699219 23.699219 23.398438 23.800781 C 23.199219 23.898438 23 24 22.800781 24.199219 C 22.601563 24.398438 22.5 24.601563 22.5 24.800781 C 22.398438 25 22.398438 25.300781 22.398438 25.601563 C 22.199219 25.800781 22.300781 26.101563 22.398438 26.300781" fill="#fff"/></svg>
